fs/save_20_filled.svg

<svg viewBox="0 0 20 20" fill="none" xmlns="http://www.w3.org/2000/svg" height="1em" width="1em">
  <path d="M3 5C3 3.89543 3.89543 3 5 3H6L6 6.5C6 7.32843 6.67157 8 7.5 8L11.5 8C12.3284 8 13 7.32843 13 6.5V3H13.3787C13.9091 3 14.4178 3.21071 14.7929 3.58579L16.4142 5.20711C16.7893 5.58218 17 6.09089 17 6.62132V15C17 16.1046 16.1046 17 15 17V11.5C15 10.6716 14.3284 10 13.5 10H6.5C5.67157 10 5 10.6716 5 11.5L5 17C3.89543 17 3 16.1046 3 15V5ZM12 3H7L7 6.5C7 6.77614 7.22386 7 7.5 7L11.5 7C11.7761 7 12 6.77614 12 6.5V3ZM14 11.5V17H6V11.5C6 11.2239 6.22386 11 6.5 11H13.5C13.7761 11 14 11.2239 14 11.5Z" fill="#212121"/>
</svg>

<svg viewBox="0 0 20 20" fill="none" xmlns="http://www.w3.org/2000/svg" height="1em" width="1em">
  <path d="M3 5a2 2 0 0 1 2-2h1v3.5A1.5 1.5 0 0 0 7.5 8h4A1.5 1.5 0 0 0 13 6.5V3h.379a2 2 0 0 1 1.414.586l1.621 1.621A2 2 0 0 1 17 6.621V15a2 2 0 0 1-2 2v-5.5a1.5 1.5 0 0 0-1.5-1.5h-7A1.5 1.5 0 0 0 5 11.5V17a2 2 0 0 1-2-2V5Zm9-2H7v3.5a.5.5 0 0 0 .5.5h4a.5.5 0 0 0 .5-.5V3Zm2 8.5V17H6v-5.5a.5.5 0 0 1 .5-.5h7a.5.5 0 0 1 .5.5Z" fill="#212121"/>
</svg>
